build/img/icon/whatsapp.svg

<svg width="46" height="46" viewBox="0 0 46 46" fill="none" xmlns="http://www.w3.org/2000/svg">
<circle cx="23" cy="23" r="23" fill="#29AD1C"/>
<path d="M35.88 22.2206C35.88 28.903 30.4207 34.3202 23.6848 34.3202C21.5472 34.3202 19.5393 33.7735 17.7913 32.8161L11.04 34.9601L13.2408 28.4664C12.1311 26.6439 11.492 24.5039 11.492 22.2198C11.4928 15.5373 16.9505 10.1201 23.6864 10.1201C30.4215 10.1217 35.88 15.5381 35.88 22.2206ZM23.684 12.0495C18.0311 12.0495 13.4328 16.613 13.4328 22.223C13.4328 24.4489 14.1585 26.5095 15.3856 28.1862L14.1059 31.9632L18.044 30.7117C19.664 31.7744 21.6023 32.3933 23.684 32.3933C29.3369 32.3933 33.9369 27.8306 33.9369 22.2206C33.9385 16.613 29.3377 12.0495 23.684 12.0495ZM29.8432 25.0078C29.767 24.8854 29.5678 24.8109 29.2697 24.6619C28.9724 24.5129 27.5007 23.796 27.2277 23.6988C26.9523 23.5992 26.7531 23.549 26.5538 23.8462C26.357 24.1435 25.7835 24.8109 25.6077 25.0102C25.4336 25.2086 25.2594 25.2337 24.9605 25.0871C24.6617 24.9365 23.6978 24.6254 22.5557 23.6154C21.6671 22.8281 21.0669 21.8585 20.8936 21.5612C20.7178 21.2648 20.8758 21.1044 21.024 20.957C21.1576 20.8233 21.3229 20.6103 21.4727 20.4362C21.6226 20.2636 21.672 20.1413 21.7716 19.9429C21.8696 19.7444 21.8202 19.5719 21.7465 19.4221C21.672 19.273 21.075 17.815 20.8247 17.2213C20.5761 16.6284 20.3274 16.7264 20.1524 16.7264C19.9783 16.7264 19.779 16.7021 19.5798 16.7021C19.3805 16.7021 19.0565 16.7742 18.7836 17.0715C18.5106 17.3687 17.7379 18.0856 17.7379 19.5452C17.7379 21.0064 18.8079 22.415 18.9577 22.6126C19.1084 22.8094 21.0264 25.9028 24.0647 27.0902C27.1046 28.2769 27.1046 27.8808 27.6521 27.8306C28.2013 27.7804 29.4212 27.1137 29.669 26.422C29.9185 25.727 29.9185 25.1317 29.8432 25.0078Z" fill="white"/>
</svg>

<svg width="46" height="46" fill="none" xmlns="http://www.w3.org/2000/svg"><circle cx="23" cy="23" r="23" fill="#29AD1C"/><path d="M35.88 22.22c0 6.683-5.46 12.1-12.195 12.1-2.138 0-4.146-.547-5.894-1.504L11.04 34.96l2.2-6.494a11.977 11.977 0 01-1.748-6.246c0-6.683 5.459-12.1 12.194-12.1 6.736.002 12.194 5.418 12.194 12.1zM23.684 12.05c-5.653 0-10.251 4.563-10.251 10.173 0 2.226.726 4.287 1.953 5.963l-1.28 3.777 3.938-1.251a10.25 10.25 0 005.64 1.681c5.653 0 10.253-4.562 10.253-10.172.002-5.608-4.6-10.171-10.253-10.171zm6.16 12.958c-.077-.123-.276-.197-.574-.346-.298-.15-1.77-.866-2.042-.963-.276-.1-.475-.15-.674.147-.197.297-.77.965-.946 1.164-.174.199-.349.224-.648.077-.298-.15-1.262-.462-2.404-1.472-.889-.787-1.49-1.756-1.662-2.054-.176-.296-.018-.457.13-.604.134-.134.299-.347.449-.52.15-.173.199-.296.299-.494.098-.199.048-.371-.025-.52-.075-.15-.672-1.608-.922-2.202-.249-.593-.498-.495-.673-.495-.174 0-.373-.024-.572-.024-.2 0-.523.072-.796.37-.273.297-1.046 1.014-1.046 2.473 0 1.461 1.07 2.87 1.22 3.068.15.196 2.068 3.29 5.107 4.477 3.04 1.187 3.04.79 3.587.74.55-.05 1.77-.716 2.017-1.408.25-.695.25-1.29.174-1.414z" fill="#fff"/></svg>
